X:0059
T:Johnie's Grey Breeks.
M:2/4
L:1/16
Q:1/4=84
I: :: (1) :| (2) ::
% G, A, B, D E ^F G A B c d e g
Z:Jack Campin * www.campin.me.uk * 2009
K:E Minor
   GA|B2B2 (cB)(AG)| {F} E4   G3 D|B,2A,G, G,3 A,|B,2D2D2
   GA|B2B2  dB``AG | {F} E4   G3 D|B,2A,G, G,3 A,|G2 E2E2:|
   G2|D3 E  G3   A |({GA}B4)  A2G2|A2 B2   d2(ed)|B2 A2A2
[1 Bd|e2e2  ge``dB |     d2d2 edBA|G3  e   dB`AB |G2 E2E2:|
[2 Bd|e2ge  d2  ed |     B2dB AcBA|G3  e   dB`AB |G2 E2E2|]
<end>
<start>
